healthcode/jkb/static/4f474259427737a36d6c292a3c2f7553.svg

<svg height="45" viewBox="0 0 177 45" width="177" xmlns="http://www.w3.org/2000/svg"><path d="m16.9692037 39.9562415-16.92611313-16.9573313c-.05682522-.3100127-.05807955-.6849271 0-.9974901l16.92611313-16.95733133c.130638-.05700294.4987239-.0605405.9956537 0l1.9913075 1.99498015c.0567239.52097462.0594288.89674028 0 .99749008l-13.93915204 13.9648611c-.19994758.3088488-.20392126.6858988 0 .9974901l13.93915204 13.964861c.0554552.0980074.0613638.4730985 0 .9974901l-1.9913075 1.9949802c-.4922898.0571235-.8637613.0595532-.9956537 0z" fill="#fff" fill-rule="evenodd"/></svg>

<?xml version="1.0" encoding="UTF-8"?>
<svg width="177px" height="45px" viewBox="0 0 177 45" version="1.1" xmlns="http://www.w3.org/2000/svg" xmlns:xlink="http://www.w3.org/1999/xlink">
    <title>返回+关闭</title>
    <g id="Page-1" stroke="none" stroke-width="1" fill="none" fill-rule="evenodd">
        <g id="绿码状态-有核酸有打完疫苗备份-copy-7" transform="translate(-20.000000, -109.000000)" fill="#FFFFFF">
            <g id="Group-7" transform="translate(0.000000, 88.000000)">
                <g id="返回+关闭" transform="translate(20.000000, 21.000000)">
                    <path d="M16.9692037,39.9562415 L0.0430905738,22.9989102 C-0.0137346513,22.6888975 -0.014988975,22.3139831 0.0430905738,22.0014201 L16.9692037,5.04408877 C17.0998417,4.98708583 17.4679276,4.98354827 17.9648574,5.04408877 L19.9561649,7.03906892 C20.0128888,7.56004354 20.0155937,7.9358092 19.9561649,8.036559 L6.01701286,22.0014201 C5.81706528,22.3102689 5.8130916,22.6873189 6.01701286,22.9989102 L19.9561649,36.9637712 C20.0116201,37.0617786 20.0175287,37.4368697 19.9561649,37.9612613 L17.9648574,39.9562415 C17.4725676,40.013365 17.1010961,40.0157947 16.9692037,39.9562415 Z" id="Rectangle-"></path>
                </g>
            </g>
        </g>
    </g>
</svg>
